profiles/ir-yellow-trees-bw.pp3
[Version]
AppVersion=5.3
Version=327

[Exposure]
Auto=false
Clip=0.02
Compensation=0.65000000000000002
Brightness=-3
Contrast=35
Saturation=0
Black=2308
HighlightCompr=32
HighlightComprThreshold=30
ShadowCompr=0
CurveMode=Perceptual
CurveMode2=Perceptual
Curve=0;
Curve2=0;

[HLRecovery]
Enabled=false
Method=Blend

[Channel Mixer]
Red=-11;5;100;
Green=-40;83;46;
Blue=97;24;-46;

[Black & White]
Enabled=false
Method=Desaturation
Auto=false
ComplementaryColors=true
Setting=NormalContrast
Filter=None
MixerRed=43
MixerOrange=33
MixerYellow=33
MixerGreen=33
MixerCyan=33
MixerBlue=30
MixerMagenta=33
MixerPurple=33
GammaRed=0
GammaGreen=0
GammaBlue=0
Algorithm=SP
LuminanceCurve=0;
BeforeCurveMode=Standard
AfterCurveMode=Standard
BeforeCurve=0;
AfterCurve=0;

[Sharpening]
Enabled=true
Method=usm
Radius=0.5
Amount=200
Threshold=20;80;2000;1200;
OnlyEdges=false
EdgedetectionRadius=1.8999999999999999
EdgeTolerance=1800
HalocontrolEnabled=false
HalocontrolAmount=85
DeconvRadius=0.75
DeconvAmount=75
DeconvDamping=20
DeconvIterations=30

[Vibrance]
Enabled=true
Pastels=-100
Saturated=4
PSThreshold=0;75;
ProtectSkins=false
AvoidColorShift=true
PastSatTog=false
SkinTonesCurve=0;

[White Balance]
Setting=Custom
Temperature=2318
Green=6.4119999999999999
Equal=0.91000000000000003
TemperatureBias=0

[Directional Pyramid Denoising]
Enabled=true
Enhance=false
Median=false
Luma=14.84
Ldetail=10.98
Chroma=6.5499999999999998
Method=Lab
LMethod=SLI
CMethod=MAN
C2Method=AUTO
SMethod=shal
MedMethod=soft
RGBMethod=soft
MethodMed=Lonly
Redchro=9.5999999999999996
Bluechro=-1.6000000000000001
Gamma=1.7
Passes=1
LCurve=1;0.050000000000000003;0.14999999999999999;0.34999999999999998;0.34999999999999998;0.55000000000000004;0.040000000000000001;0.34999999999999998;0.34999999999999998;
CCCurve=1;0.050000000000000003;0.5;0.34999999999999998;0.34999999999999998;0.34999999999999998;0.050000000000000003;0.34999999999999998;0.34999999999999998;

[Shadows & Highlights]
Enabled=true
HighQuality=false
Highlights=34
HighlightTonalWidth=80
Shadows=10
ShadowTonalWidth=80
LocalContrast=7
Radius=40

[Color Management]
InputProfile=(camera)
ToneCurve=false
ApplyLookTable=false
ApplyBaselineExposureOffset=true
ApplyHueSatMap=true
DCPIlluminant=0
WorkingProfile=ProPhoto
OutputProfile=RT_sRGB
OutputProfileIntent=Relative
OutputBPC=true
Gammafree=default
Freegamma=false
GammaValue=2.2200000000000002
GammaSlope=4.5

[HSV Equalizer]
HCurve=0;
SCurve=0;
VCurve=0;

[Film Simulation]
Enabled=false
ClutFilename=
Strength=100

[RGB Curves]
LumaMode=false
rCurve=0;
gCurve=0;
bCurve=0;

[ColorToning]
Enabled=false
Method=Lab
Lumamode=true
Twocolor=Std
Redlow=0
Greenlow=0
Bluelow=0
Satlow=0
Balance=0
Sathigh=0
Redmed=0
Greenmed=0
Bluemed=0
Redhigh=0
Greenhigh=0
Bluehigh=0
Autosat=true
OpacityCurve=1;0;0.29999999999999999;0.34999999999999998;0;0.25;0.80000000000000004;0.34999999999999998;0.34999999999999998;0.69999999999999996;0.80000000000000004;0.34999999999999998;0.34999999999999998;1;0.29999999999999999;0;0;
ColorCurve=1;0.050000000000000003;0.62;0.25;0.25;0.58499999999999996;0.11;0.25;0.25;
SatProtectionThreshold=0
SaturatedOpacity=1
Strength=50
HighlightsColorSaturation=60;80;
ShadowsColorSaturation=80;208;
ClCurve=3;0;0;0.34999999999999998;0.65000000000000002;1;1;
Cl2Curve=3;0;0;0.34999999999999998;0.65000000000000002;1;1;
